!!!COM: Bach, Johann Sebastian
!!!OPR: Joh. Seb. Bachs vierstimmige Choralgesänge
!!!XEN: Four-part Chorales
!!!OTL: 21. Christ, der du bist der helle Tag
!!!SCT: BWV 273
!!!SCA: Thematisch-systematisches Verzeichnis der musikalischen Werke Johann Sebastian Bach: Bach-Werke-Verzeichnis (Schmieder)
!!!YOR: Bach Gesellschaft Edition xxxix
!!!ENC: Steven Rasmussen
!!!CDT: 1685/3//-1750/7/28/
!!!OCY: Deutschland
!!!YEC: Copyright (c) 1994, 2000 Center for Computer Assisted Research in the Humanities
!!!YEM: Rights to all derivative editions reserved
!!!YEN: United States of America
**kern	**silbe	**kern	**kern	**kern
*I:[SOPRANO]	*I:[SOPRANO]	*I:[ALTO]	*I:[TENORE]	*I:[BASSO]
*clefG2	*	*clefG2	*clefGv2	*clefF4
*k[b-e-]	*	*k[b-e-]	*k[b-e-]	*k[b-e-]
*B-:	*	*B-:	*B-:	*B-:
*M4/4	*	*M4/4	*M4/4	*M4/4
4g	Christ,	4d	4B-	4GG
=1	=1	=1	=1	=1
4g	der	8dL	4B-	4G
.	.	8enJ	.	.
4b-	du	8fL	8dL	8DL
.	.	8gJ	8cJ	8EnJ
4a	bist	8fL	4c	8FL
.	.	8e-J	.	8F#J
4g	der	4d	8B-L	8GL
.	.	.	8AJ	8FnJ
=2	=2	=2	=2	=2
4b-	hel-	8gL	(16GLL	8E-L
.	.	.	16AJJ	.
.	.	8fJ	4B-)	8DJ
4cc	-le	8e-L	.	8CL
.	.	8fJ	8A	8FJ
4dd;	Tag,	4f;	4B-;	4BB-;
4dd	vor	4f	8B-L	4BB-
.	.	.	8cJ	.
=3	=3	=3	=3	=3
4dd	dir	4f	8dL	8B-L
.	.	.	8cJ	8AJ
8ddL	die	4g	4B-	4G
8ee-J	.	.	.	.
8ffL	Nacht	4a	4c	4F
8ee-J	.	.	.	.
4dd	nicht	4b-	8B-L	8GL
.	.	.	8dJ	8FJ
=4	=4	=4	=4	=4
4cc	blei-	8b-L	4g	4E-
.	.	16aL	.	.
.	.	16gJJ	.	.
4cc	-ben	4a	8fL	4F
.	.	.	8e-J	.
4b-;	mag;	4f;	4d;	4BB-;
4b-	du	4g	4d	8GL
.	.	.	.	8FJ
=5	=5	=5	=5	=5
4b-	leuch-	8gL	4e-	8E-L
.	.	8aJ	.	8DJ
4dd	-test	4b-	4f	8CL
.	.	.	.	8BB-J
4cc	uns	8b-L	4f	4.F
.	.	16aL	.	.
.	.	16gJJ	.	.
4a	vom	4f	4c	.
.	.	.	.	8E-
=6	=6	=6	=6	=6
4b-	Va-	4f	4.B-	8DL
.	.	.	.	8BB-J
4cc	-ter	4f	.	4F
.	.	.	8A	.
4dd;	her	4f;	4B-;	4BB-;
4dd	und	4f	4B-	4BB-
=7	=7	=7	=7	=7
4dd	bist	4f	4B-	8BB-L
.	.	.	.	8CJ
4dd	des	4f	4B-	8DL
.	.	.	.	8E-J
4cc	Lich-	8.fL	8B-L	4F
.	.	.	8AJ	.
.	.	16e-Jk	.	.
4cc	-tes	4d	4A	8F#L
.	.	.	.	8DJ
=8	=8	=8	=8	=8
4.b-	Pre-	4d	8AL	4G
.	.	.	8GJ	.
.	.	4en	8GL	4C#
16aLL	-di-	.	16AL	.
16gJJ	.	.	16B-JJ	.
4f;	-ger,	4d;	4A;	4D;
4f	und	4d	8B-L	8BB-L
.	.	.	8cJ	8AAJ
=9	=9	=9	=9	=9
8b-L	bist	8gL	8dL	4GG
8ccJ	.	8aJ	8cJ	.
4dd	des	4b-	8B-L	8GL
.	.	.	8AJ	8FJ
4cc	Lich-	4b-	4G	4En
4dd	-tes	4a	4d	4F#
=10	=10	=10	=10	=10
4b-	Pre-	(8a	8dL	8GL
.	.	4g)	8e-J	8CJ
4a	-di-	.	8AL	4D
.	.	8f#	8dJ	.
4g;	-ger.	4d;	4B-;	4GG;
==|!	==|!	==|!	==|!	==|!
*-	*-	*-	*-	*-
!!!RWG: Key is interpreted using the Humdrum key tool.
!!!END: 1994/05/11
!!!EMD: Converted from MuseData to Humdrum Dec 19, 2000, by Andreas Kornstaedt using muse2kern.
!!!EED: Craig Stuart Sapp
!!!EEV: 2024/03/31
!!!ONB: Some non-unicode characters
